icon-themes/sifr_svg/cmd/sc_currencyfield.svg

<svg viewBox="0 0 16 16" xmlns="http://www.w3.org/2000/svg"><path d="m1 1v5.426c.27-.126.55-.206.85-.266.05-.01.1-.0123142.15-.0213281v-4.1386719h12v5h-7.2734c.0334 0 .0734.06.0934.11v.0052344l.01.0047656v.0089062c.0939228.1629858.1649624.3710938.17.5976938v.0116812.2617188h8v-7zm2 2v1h1v-1zm5 0a2 1.5 0 0 0 -2 1.5 2 1.5 0 0 0 2 1.5 2 1.5 0 0 0 2-1.5 2 1.5 0 0 0 -2-1.5zm4 0v1h1v-1zm-9 2v1h1v-1zm9 0v1h1v-1zm-8.574 2a2.5.75 0 0 0 -2.2795156.5 2.5.75 0 0 0 -.1464844.25v.5c0 .414213 1.12.75 2.5.75s2.5-.335787 2.5-.75v-.5a2.5.75 0 0 0 -.04-.12c0-.005 0-.0070062.04-.0089062a2.5.75 0 0 0 -.1464844-.1210938 2.5.75 0 0 0 -2.3535156-.5 2.5.75 0 0 0 -.074 0zm6 2a2.5.75 0 0 0 -2.2795156.5 2.5.75 0 0 0 -.1464844.25v.5c0 .414213 1.12.75 2.5.75s2.5-.335787 2.5-.75v-.5a2.5.75 0 0 0 -.037109-.12c-.001-.005-.002891-.0070063-.002891-.0089062a2.5.75 0 0 0 -.106484-.1210938 2.5.75 0 0 0 -2.353516-.5 2.5.75 0 0 0 -.074 0zm-8.2795156.266c-.0964844.092417-.1453844.1901175-.1464844.284v.582812c0 .479061 1.12.867188 2.5.867188s2.5-.388127 2.5-.867188v-.582812c-.001126-.0938795-.0506644-.191585-.1464844-.284-.352722.345778-1.2953456.577235-2.3535156.57775-1.05817-.000515-2-.231972-2.3535156-.57775zm0 2c-.0964844.092417-.1453844.190117-.1464844.288688v.578124c0 .479061 1.12.867188 2.5.867188s2.5-.388127 2.5-.867188v-.578124c-.001126-.098568-.0506644-.196273-.1464844-.288688-.352722.345778-1.2953456.577235-2.3535156.57775-1.05817-.000515-2-.231972-2.3535156-.57775zm6 0c-.0964844.092417-.1453844.190117-.1464844.288688v.578124c0 .479061 1.12.867188 2.5.867188s2.5-.388127 2.5-.867188v-.578124c0-.098568-.05-.196273-.146484-.288688-.352722.345778-1.295346.577235-2.353516.57775-1.05817-.000515-2-.231972-2.3535156-.57775zm-6 2c-.0964844.092417-.1453844.190117-.1464844.288688v.578124c0 .479061 1.12.867188 2.5.867188s2.5-.388127 2.5-.867188v-.578124c-.001126-.098568-.0506644-.196273-.1464844-.288688-.352722.345778-1.2953456.577235-2.3535156.57775-1.05817-.000515-2-.231972-2.3535156-.57775zm6 0c-.0964844.092417-.1453844.190117-.1464844.288688v.578124c0 .479061 1.12.867188 2.5.867188s2.5-.388127 2.5-.867188v-.578124c0-.098568-.05-.196273-.146484-.288688-.352722.345778-1.295346.577235-2.353516.57775-1.05817-.000515-2-.231972-2.3535156-.57775z" fill="#555753"/></svg>

<svg xmlns="http://www.w3.org/2000/svg" viewBox="0 0 16 16">
  <path
     style="fill:#555753"
     d="M 1 1 L 1 6.426 C 1.27 6.3 1.55 6.22 1.85 6.16 C 1.9 6.15 1.95 6.1476858 2 6.1386719 L 2 2 L 14 2 L 14 7 L 6.7266 7 C 6.76 7 6.8 7.06 6.82 7.11 L 6.82 7.1152344 L 6.83 7.12 C 6.83 7.12 6.83 7.1279762 6.83 7.1289062 C 6.9239228 7.291892 6.9949624 7.5 7 7.7266 L 7 7.7382812 L 7 8 L 15 8 L 15 1 L 1 1 z M 3 3 L 3 4 L 4 4 L 4 3 L 3 3 z M 8 3 A 2 1.5 0 0 0 6 4.5 A 2 1.5 0 0 0 8 6 A 2 1.5 0 0 0 10 4.5 A 2 1.5 0 0 0 8 3 z M 12 3 L 12 4 L 13 4 L 13 3 L 12 3 z M 3 5 L 3 6 L 4 6 L 4 5 L 3 5 z M 12 5 L 12 6 L 13 6 L 13 5 L 12 5 z M 3.426 7 A 2.5 0.75 0 0 0 1.1464844 7.5 A 2.5 0.75 0 0 0 1 7.75 L 1 8.25 C 1 8.664213 2.12 9 3.5 9 C 4.88 9 6 8.664213 6 8.25 L 6 7.75 A 2.5 0.75 0 0 0 5.96 7.63 C 5.96 7.625 5.96 7.6229938 6 7.6210938 A 2.5 0.75 0 0 0 5.8535156 7.5 A 2.5 0.75 0 0 0 3.5 7 A 2.5 0.75 0 0 0 3.426 7 z M 9.426 9 A 2.5 0.75 0 0 0 7.1464844 9.5 A 2.5 0.75 0 0 0 7 9.75 L 7 10.25 C 7 10.664213 8.12 11 9.5 11 C 10.88 11 12 10.664213 12 10.25 L 12 9.75 A 2.5 0.75 0 0 0 11.962891 9.63 C 11.961891 9.625 11.96 9.6229937 11.96 9.6210938 A 2.5 0.75 0 0 0 11.853516 9.5 A 2.5 0.75 0 0 0 9.5 9 A 2.5 0.75 0 0 0 9.426 9 z M 1.1464844 9.266 C 1.05 9.358417 1.0011 9.4561175 1 9.55 L 1 10.132812 C 1 10.611873 2.12 11 3.5 11 C 4.88 11 6 10.611873 6 10.132812 L 6 9.55 C 5.998874 9.4561205 5.9493356 9.358415 5.8535156 9.266 C 5.5007936 9.611778 4.55817 9.843235 3.5 9.84375 C 2.44183 9.843235 1.5 9.611778 1.1464844 9.266 z M 1.1464844 11.266 C 1.05 11.358417 1.0011 11.456117 1 11.554688 L 1 12.132812 C 1 12.611873 2.12 13 3.5 13 C 4.88 13 6 12.611873 6 12.132812 L 6 11.554688 C 5.998874 11.45612 5.9493356 11.358415 5.8535156 11.266 C 5.5007936 11.611778 4.55817 11.843235 3.5 11.84375 C 2.44183 11.843235 1.5 11.611778 1.1464844 11.266 z M 7.1464844 11.266 C 7.05 11.358417 7.0011 11.456117 7 11.554688 L 7 12.132812 C 7 12.611873 8.12 13 9.5 13 C 10.88 13 12 12.611873 12 12.132812 L 12 11.554688 C 12 11.45612 11.95 11.358415 11.853516 11.266 C 11.500794 11.611778 10.55817 11.843235 9.5 11.84375 C 8.44183 11.843235 7.5 11.611778 7.1464844 11.266 z M 1.1464844 13.266 C 1.05 13.358417 1.0011 13.456117 1 13.554688 L 1 14.132812 C 1 14.611873 2.12 15 3.5 15 C 4.88 15 6 14.611873 6 14.132812 L 6 13.554688 C 5.998874 13.45612 5.9493356 13.358415 5.8535156 13.266 C 5.5007936 13.611778 4.55817 13.843235 3.5 13.84375 C 2.44183 13.843235 1.5 13.611778 1.1464844 13.266 z M 7.1464844 13.266 C 7.05 13.358417 7.0011 13.456117 7 13.554688 L 7 14.132812 C 7 14.611873 8.12 15 9.5 15 C 10.88 15 12 14.611873 12 14.132812 L 12 13.554688 C 12 13.45612 11.95 13.358415 11.853516 13.266 C 11.500794 13.611778 10.55817 13.843235 9.5 13.84375 C 8.44183 13.843235 7.5 13.611778 7.1464844 13.266 z "
     />
</svg>
